icons/1_Primary/Cash App.svg

<svg xmlns="http://www.w3.org/2000/svg" width="1024" height="1024" fill="none">
   <g clip-path="url(#a)">
      <path fill="#98DC9A" d="M512 1024c282.77 0 512-229.23 512-512S794.77 0 512 0 0 229.23 0 512s229.23 512 512 512Z"/>
      <path fill="#fff" d="M738 345.65a99.26 99.26 0 0 0-23.14-36.39 99.26 99.26 0 0 0-36.39-23.14c-25.49-8-48.7-8-95.89-8H441c-46.92 0-70.41 0-95.46 7.79A99.251 99.251 0 0 0 286 345.43c-8 25.33-8 48.76-8 95.68v141.57c0 47.19 0 70.41 7.79 95.68a99.26 99.26 0 0 0 23.14 36.39 99.26 99.26 0 0 0 36.39 23.14c25.33 8 48.76 8 95.68 8h141.78c47 0 70.41 0 95.68-8A99.252 99.252 0 0 0 738 678.35c8-25.33 8-48.76 8-95.68V441.32c0-46.97 0-70.4-8-95.67Zm-120.3 90.43-18.09 18.12a9.576 9.576 0 0 1-13.15.27 97.41 97.41 0 0 0-62.77-23.05c-18.94 0-37.88 6.28-37.88 23.7 0 17.42 20.29 23.22 43.78 32 41.07 13.85 74.9 30.85 74.9 71.11 0 43.73-33.93 73.6-89.45 77l-5 23.43a9.473 9.473 0 0 1-9.31 7.47h-34.95a9.644 9.644 0 0 1-4.06-1.005 9.638 9.638 0 0 1-5.079-6.393 9.641 9.641 0 0 1-.061-4.182l5.42-24.68a128.307 128.307 0 0 1-56-30.68l-.24-.24a9.353 9.353 0 0 1-2.624-6.67 9.364 9.364 0 0 1 2.864-6.57l19.37-18.94a9.422 9.422 0 0 1 13.2 0 93.399 93.399 0 0 0 66 25.81c25.27 0 42.43-10.72 42.43-27.71 0-16.99-17.21-21.48-49.68-33.55C463 519.09 430.5 501.61 430.5 461c0-47 39.29-70 85.61-72.25l4.89-23.89a9.471 9.471 0 0 1 9.25-7.41H565a9.423 9.423 0 0 1 9.168 7.165 9.414 9.414 0 0 1 .082 4.145l-5.41 26.68a143.302 143.302 0 0 1 48.33 27.06c.187.16.363.327.53.5a9.248 9.248 0 0 1-.01 13.07l.01.01Z"/>
   </g>
   <defs>
      <clipPath id="a">
         <path fill="#fff" d="M0 0h1024v1024H0z"/>
      </clipPath>
   </defs>
</svg>

<svg width="1024" height="1024" viewBox="0 0 1024 1024" fill="none" xmlns="http://www.w3.org/2000/svg">
<g clip-path="url(#clip0_2_1785)">
<path d="M512 1024C794.77 1024 1024 794.77 1024 512C1024 229.23 794.77 0 512 0C229.23 0 0 229.23 0 512C0 794.77 229.23 1024 512 1024Z" fill="#98DC9A"/>
<path d="M738 345.65C733.047 331.971 725.147 319.548 714.86 309.26C704.572 298.973 692.149 291.073 678.47 286.12C652.98 278.12 629.77 278.12 582.58 278.12H441C394.08 278.12 370.59 278.12 345.54 285.91C331.86 290.861 319.435 298.759 309.146 309.044C298.857 319.33 290.955 331.752 286 345.43C278 370.76 278 394.19 278 441.11V582.68C278 629.87 278 653.09 285.79 678.36C290.743 692.039 298.643 704.462 308.93 714.75C319.218 725.037 331.641 732.937 345.32 737.89C370.65 745.89 394.08 745.89 441 745.89H582.78C629.78 745.89 653.19 745.89 678.46 737.89C692.142 732.937 704.568 725.036 714.857 714.747C725.146 704.458 733.047 692.032 738 678.35C746 653.02 746 629.59 746 582.67V441.32C746 394.35 746 370.92 738 345.65ZM617.7 436.08L599.61 454.2C597.867 455.915 595.534 456.898 593.089 456.948C590.644 456.999 588.272 456.112 586.46 454.47C568.912 439.621 546.678 431.456 523.69 431.42C504.75 431.42 485.81 437.7 485.81 455.12C485.81 472.54 506.1 478.34 529.59 487.12C570.66 500.97 604.49 517.97 604.49 558.23C604.49 601.96 570.56 631.83 515.04 635.23L510.04 658.66C509.581 660.785 508.405 662.686 506.71 664.047C505.015 665.407 502.903 666.142 500.73 666.13H465.78C464.369 666.096 462.984 665.753 461.72 665.125C460.457 664.496 459.348 663.598 458.47 662.493C457.592 661.389 456.968 660.104 456.641 658.732C456.315 657.359 456.294 655.932 456.58 654.55L462 629.87C441.046 624.526 421.783 613.972 406 599.19L405.76 598.95C404.906 598.065 404.235 597.021 403.785 595.876C403.334 594.732 403.114 593.51 403.136 592.28C403.159 591.051 403.423 589.838 403.914 588.71C404.406 587.583 405.114 586.563 406 585.71L425.37 566.77C427.131 565.041 429.501 564.071 431.97 564.071C434.439 564.071 436.809 565.041 438.57 566.77C456.325 583.71 480.034 592.981 504.57 592.58C529.84 592.58 547 581.86 547 564.87C547 547.88 529.79 543.39 497.32 531.32C463 519.09 430.5 501.61 430.5 461C430.5 414 469.79 391 516.11 388.75L521 364.86C521.469 362.757 522.641 360.876 524.323 359.529C526.004 358.182 528.095 357.449 530.25 357.45H565C566.399 357.447 567.782 357.755 569.047 358.353C570.312 358.951 571.428 359.823 572.313 360.906C573.199 361.989 573.833 363.256 574.168 364.615C574.503 365.973 574.531 367.389 574.25 368.76L568.84 395.44C586.557 401.231 602.973 410.423 617.17 422.5C617.357 422.66 617.533 422.827 617.7 423C619.43 424.736 620.4 427.087 620.399 429.537C620.397 431.988 619.423 434.337 617.69 436.07L617.7 436.08Z" fill="white"/>
</g>
<defs>
<clipPath id="clip0_2_1785">
<rect width="1024" height="1024" fill="white"/>
</clipPath>
</defs>
</svg>
